!! 00000] TT[WS
!!!OTL: Xiaoguafu shangfen
!!!ARE: Asia, China, Shanxi Xingxian
!! Ethnic Group: Han
!! WII, 152
!!!SCT: J0632
!!!YEM: Copyright 1995, estate of Helmut Schaffrath.
**kern
*ICvox
*Ivox
*M2/4
*k[f#c#g#]
*A:
{8.a
16b
8cc#
8cc#
=1
8cc#
4.b
=2
4ee
8cc#
8b
=3
8a
4f#
8b
=4
8a
4f#
8b
=5
2a}
=6
{8.a
16b
8cc#
8b
=7
8cc#
4.b
=8
4ee
8a
8f#
=9
8e
4c#
8f#
=10
4.e
8f#
=11
2e}
==
!!!AGN: Xiaodiao. Qingge, Aisu
!!!ONB: ESAC (Essen Associative Code) Database: CHINA
!!!AMT: simple duple
!!!AIN: vox
!!!EED: Helmut Schaffrath
!!!EEV: 1.0
*-
